X: 11483
M: 3/8
L: 1/16
K: G
d3gfe | d3cBA | G3ABc | ^G2A2 Bc |\
d3efg | a3gfe | d2dfe^c | d4 |] d2 |\
c'4 (3(agf) | gb d2d2 | c'2a2f2 | gb d2dd |
b3agf | ~e3fgb | d3cBA | G4 |] [M:3/4]\
|: B2c2 |\
d4 dedc B4 | d4 dedc B4 | g4 f4 g4 | b4 a4 d4 |\
c4 cdcB A4 | c4 cdcB A4 | f4 e4 f4 | g8 :|


